packages/sources/assets/src/assets/google-pay.svg

<svg width="58" height="40" viewBox="0 0 58 40" fill="none" xmlns="http://www.w3.org/2000/svg">
<rect x="0.5" y="0.5" width="57" height="39" rx="3.5" fill="white" stroke="#F3F3F3"/>
<path fill-rule="evenodd" clip-rule="evenodd" d="M27.9174 24.1182V19.6071V19.6062H30.3578C31.3639 19.6068 32.2095 19.2907 32.8945 18.6578C33.5868 18.0571 33.9738 17.1935 33.9541 16.2934C33.9678 15.3982 33.5815 14.541 32.8945 13.9422C32.2155 13.3059 31.3023 12.9587 30.3578 12.9778H26.4404V24.1182H27.9174ZM27.9174 18.2382V14.3494V14.3485H30.3945C30.9466 14.3334 31.4788 14.5487 31.856 14.9396C32.2355 15.2971 32.4496 15.7881 32.4496 16.3009C32.4496 16.8137 32.2355 17.3048 31.856 17.6622C31.4741 18.0449 30.9436 18.254 30.3945 18.2382H27.9174Z" fill="#5F6368"/>
<path fill-rule="evenodd" clip-rule="evenodd" d="M39.9431 17.0951C39.3113 16.5297 38.4496 16.2471 37.3578 16.2471C35.9554 16.2471 34.8963 16.7448 34.1807 17.7404L35.4817 18.5342C35.9624 17.8598 36.6153 17.5226 37.4404 17.5226C37.9664 17.5167 38.4755 17.703 38.8661 18.0444C39.2555 18.3564 39.4795 18.8215 39.4762 19.3111V19.6382C38.9086 19.3271 38.1863 19.1715 37.3092 19.1715C36.2817 19.1727 35.4603 19.4062 34.845 19.872C34.2297 20.3377 33.922 20.965 33.922 21.7537C33.9086 22.4719 34.2302 23.1577 34.7973 23.6204C35.3807 24.1182 36.1058 24.3671 36.9725 24.3671C37.9878 24.3671 38.8012 23.9315 39.4129 23.0604H39.4771V24.1182H40.8899V19.4204C40.8905 18.4355 40.5749 17.6604 39.9431 17.0951ZM35.9367 22.7182C35.6273 22.5021 35.4448 22.1544 35.4468 21.7848C35.4468 21.3697 35.6477 21.024 36.0523 20.7395C36.4529 20.4592 36.9532 20.3191 37.5532 20.3191C38.3771 20.3191 39.0193 20.4968 39.4798 20.8524C39.4798 21.4533 39.2352 21.9768 38.7459 22.4231C38.3052 22.8501 37.7077 23.0905 37.0844 23.0915C36.6689 23.099 36.2634 22.9672 35.9367 22.7182Z" fill="#5F6368"/>
<path fill-rule="evenodd" clip-rule="evenodd" d="M49 16.496L44.0679 27.4782H42.5431L44.3734 23.6355L41.1303 16.496H42.7358L45.0798 21.9715H45.1119L47.3917 16.496H49Z" fill="#5F6368"/>
<path fill-rule="evenodd" clip-rule="evenodd" d="M21.9486 18.6347C21.9492 18.1986 21.9111 17.7632 21.8349 17.3334H15.6055V19.7983H19.1734C19.0259 20.5938 18.5493 21.2964 17.8541 21.7432V23.3432H19.9835C21.2303 22.2294 21.9486 20.5823 21.9486 18.6347Z" fill="#4285F4"/>
<path fill-rule="evenodd" clip-rule="evenodd" d="M15.6055 24.8889C17.3881 24.8889 18.889 24.3217 19.9835 23.344L17.8541 21.744C17.2615 22.1333 16.4982 22.3555 15.6055 22.3555C13.8826 22.3555 12.4202 21.2302 11.8973 19.7137H9.70367V21.3626C10.8249 23.5244 13.1085 24.8887 15.6055 24.8889Z" fill="#34A853"/>
<path fill-rule="evenodd" clip-rule="evenodd" d="M11.8973 19.7138C11.6208 18.9192 11.6208 18.0586 11.8973 17.264V15.6151H9.70367C8.76585 17.4232 8.76585 19.5546 9.70367 21.3627L11.8973 19.7138Z" fill="#FBBC04"/>
<path fill-rule="evenodd" clip-rule="evenodd" d="M15.6055 14.6223C16.5475 14.6073 17.4577 14.9522 18.1395 15.5823L20.0248 13.7556C18.8293 12.6677 17.2455 12.0704 15.6055 12.0889C13.1085 12.089 10.8249 13.4534 9.70367 15.6151L11.8973 17.264C12.4202 15.7476 13.8826 14.6223 15.6055 14.6223Z" fill="#EA4335"/>
</svg>

<svg width="58" height="40" fill="none" xmlns="http://www.w3.org/2000/svg"><rect x=".5" y=".5" width="57" height="39" rx="3.5" fill="#fff" stroke="#F3F3F3"/><path fill-rule="evenodd" clip-rule="evenodd" d="M27.917 24.118v-4.512h2.44c1.007 0 1.852-.315 2.538-.948a3.043 3.043 0 0 0 1.06-2.365 3.057 3.057 0 0 0-1.06-2.35 3.605 3.605 0 0 0-2.537-.965H26.44v11.14h1.477Zm0-5.88V14.35h2.477c.553-.016 1.085.2 1.462.59.38.358.594.85.594 1.362a1.87 1.87 0 0 1-.594 1.361 1.985 1.985 0 0 1-1.462.576h-2.477Zm12.026-1.143c-.632-.565-1.493-.848-2.585-.848-1.403 0-2.462.498-3.177 1.493l1.3.794c.481-.674 1.134-1.011 1.96-1.011a2.131 2.131 0 0 1 1.425.521c.39.312.614.777.61 1.267v.327c-.567-.31-1.29-.466-2.167-.466-1.027 0-1.849.234-2.464.7-.615.466-.923 1.093-.923 1.882a2.353 2.353 0 0 0 .875 1.866c.584.498 1.309.747 2.175.747 1.016 0 1.83-.436 2.44-1.307h.065v1.058h1.413V19.42c0-.985-.315-1.76-.947-2.325Zm-4.006 5.623a1.132 1.132 0 0 1-.49-.933c0-.415.2-.761.605-1.046.4-.28.901-.42 1.501-.42.824 0 1.466.178 1.927.533 0 .601-.245 1.125-.734 1.571a2.394 2.394 0 0 1-1.662.669 1.84 1.84 0 0 1-1.147-.374ZM49 16.496l-4.932 10.982h-1.525l1.83-3.843-3.243-7.139h1.606l2.344 5.476h.032l2.28-5.476H49Z" fill="#5F6368"/><path fill-rule="evenodd" clip-rule="evenodd" d="M21.949 18.635c0-.436-.038-.872-.114-1.302h-6.23v2.465h3.568a2.958 2.958 0 0 1-1.319 1.945v1.6h2.13c1.246-1.114 1.965-2.76 1.965-4.708Z" fill="#4285F4"/><path fill-rule="evenodd" clip-rule="evenodd" d="M15.605 24.889c1.783 0 3.284-.567 4.378-1.545l-2.129-1.6c-.592.39-1.356.611-2.248.611a3.94 3.94 0 0 1-3.709-2.641H9.704v1.649c1.12 2.161 3.404 3.526 5.901 3.526Z" fill="#34A853"/><path fill-rule="evenodd" clip-rule="evenodd" d="M11.897 19.714a3.721 3.721 0 0 1 0-2.45v-1.649H9.704a6.223 6.223 0 0 0 0 5.748l2.193-1.65Z" fill="#FBBC04"/><path fill-rule="evenodd" clip-rule="evenodd" d="M15.605 14.622a3.65 3.65 0 0 1 2.535.96l1.885-1.826a6.461 6.461 0 0 0-4.42-1.667c-2.497 0-4.78 1.364-5.901 3.526l2.193 1.649a3.94 3.94 0 0 1 3.708-2.642Z" fill="#EA4335"/></svg>
